apps/22/nm-stage01-connecting02.svg

<?xml version="1.0" encoding="UTF-8" standalone="no"?>
<!-- Created with Inkscape (http://www.inkscape.org/) -->

<svg
   xmlns:svg="http://www.w3.org/2000/svg"
   xmlns="http://www.w3.org/2000/svg"
   version="1.0"
   width="22"
   height="22"
   id="svg3315">
  <defs
     id="defs3317" />
  <path
     d="M 9.4971071,14.972634 6.9968806,19.303153"
     id="path3279"
     style="fill:none;stroke:#878787;stroke-width:1px;stroke-linecap:round;stroke-linejoin:miter;stroke-opacity:1" />
  <path
     d="M 16.003119,3.7038899 13.501761,8.0363704"
     id="path3281"
     style="fill:none;stroke:#878787;stroke-width:1px;stroke-linecap:round;stroke-linejoin:miter;stroke-opacity:1" />
  <path
     d="M 10.463227,15.372813 9.1690136,20.20288"
     id="path2629"
     style="opacity:0.75;fill:none;stroke:#878787;stroke-width:1px;stroke-linecap:round;stroke-linejoin:miter;stroke-opacity:1" />
  <path
     d="M 13.830986,2.8041629 12.536187,7.6364167"
     id="path2631"
     style="opacity:0.75;fill:none;stroke:#878787;stroke-width:1px;stroke-linecap:round;stroke-linejoin:miter;stroke-opacity:1" />
  <path
     d="m 11.5,15.509307 0,5.000453"
     id="path3403"
     style="opacity:0.6;fill:none;stroke:#878787;stroke-width:1px;stroke-linecap:round;stroke-linejoin:miter;stroke-opacity:1" />
  <path
     d="m 11.5,2.4972827 0,5.0027175"
     id="path3405"
     style="opacity:0.6;fill:none;stroke:#878787;stroke-width:1px;stroke-linecap:round;stroke-linejoin:miter;stroke-opacity:1" />
  <path
     d="m 12.536774,15.372813 1.294211,4.830067"
     id="path3407"
     style="opacity:0.5;fill:none;stroke:#878787;stroke-width:1px;stroke-linecap:round;stroke-linejoin:miter;stroke-opacity:1" />
  <path
     d="m 9.1690138,2.8041628 1.2947982,4.832254"
     id="path3409"
     style="opacity:0.5;fill:none;stroke:#878787;stroke-width:1px;stroke-linecap:round;stroke-linejoin:miter;stroke-opacity:1" />
  <path
     d="m 13.502893,14.972634 2.500226,4.330519"
     id="path3415"
     style="opacity:0.4;fill:none;stroke:#878787;stroke-width:1px;stroke-linecap:round;stroke-linejoin:miter;stroke-opacity:1" />
  <path
     d="M 6.9968805,3.7038898 9.4982392,8.0363702"
     id="path3417"
     style="opacity:0.4;fill:none;stroke:#878787;stroke-width:1px;stroke-linecap:round;stroke-linejoin:miter;stroke-opacity:1" />
  <path
     d="m 14.332519,14.336039 3.535854,3.535855"
     id="path3419"
     style="opacity:0.3;fill:none;stroke:#878787;stroke-width:1px;stroke-linecap:round;stroke-linejoin:miter;stroke-opacity:1" />
  <path
     d="M 5.1316276,5.1351487 8.6690833,8.6726039"
     id="path3421"
     style="opacity:0.3;fill:none;stroke:#878787;stroke-width:1px;stroke-linecap:round;stroke-linejoin:miter;stroke-opacity:1" />
  <path
     d="m 14.969112,13.506414 4.330518,2.500227"
     id="path3423"
     style="opacity:0.2;fill:none;stroke:#878787;stroke-width:1px;stroke-linecap:round;stroke-linejoin:miter;stroke-opacity:1" />
  <path
     d="M 3.7003678,7.0004026 8.0328482,9.5017614"
     id="path3425"
     style="opacity:0.2;fill:none;stroke:#878787;stroke-width:1px;stroke-linecap:round;stroke-linejoin:miter;stroke-opacity:1" />
  <path
     d="m 15.369291,12.540294 4.830067,1.294214"
     id="path3427"
     style="opacity:0.15;fill:none;stroke:#878787;stroke-width:1px;stroke-linecap:round;stroke-linejoin:miter;stroke-opacity:1" />
  <path
     d="M 2.8006413,9.1725349 7.632895,10.467334"
     id="path3429"
     style="opacity:0.15;fill:none;stroke:#878787;stroke-width:1px;stroke-linecap:round;stroke-linejoin:miter;stroke-opacity:1" />
  <path
     d="m 15.505785,11.503521 5.000453,0"
     id="path3431"
     style="opacity:0.1;fill:none;stroke:#878787;stroke-width:1px;stroke-linecap:round;stroke-linejoin:miter;stroke-opacity:1" />
  <path
     d="m 2.4937607,11.503522 5.0027176,-1e-6"
     id="path3433"
     style="opacity:0.1;fill:none;stroke:#878787;stroke-width:1px;stroke-linecap:round;stroke-linejoin:miter;stroke-opacity:1" />
  <path
     d="m 14.969111,9.5006282 4.33052,-2.5002261"
     id="path3435"
     style="opacity:0.05;fill:none;stroke:#878787;stroke-width:1px;stroke-linecap:round;stroke-linejoin:miter;stroke-opacity:1" />
  <path
     d="M 3.7003679,16.006641 8.0328486,13.505282"
     id="path3437"
     style="opacity:0.05;fill:none;stroke:#878787;stroke-width:1px;stroke-linecap:round;stroke-linejoin:miter;stroke-opacity:1" />
</svg>

<?xml version="1.0" encoding="UTF-8" standalone="no"?>
<!-- Created with Inkscape (http://www.inkscape.org/) -->
<svg
   xmlns:svg="http://www.w3.org/2000/svg"
   xmlns="http://www.w3.org/2000/svg"
   version="1.0"
   width="22"
   height="22"
   id="svg3315">
  <defs
     id="defs3317" />
  <path
     d="M 9.4971071,14.972634 L 6.9968806,19.303153"
     id="path3279"
     style="fill:none;stroke:#878787;stroke-width:1px;stroke-linecap:round;stroke-linejoin:miter;stroke-opacity:1" />
  <path
     d="M 16.003119,3.7038899 L 13.501761,8.0363704"
     id="path3281"
     style="fill:none;stroke:#878787;stroke-width:1px;stroke-linecap:round;stroke-linejoin:miter;stroke-opacity:1" />
  <path
     d="M 10.463227,15.372813 L 9.1690136,20.20288"
     id="path2629"
     style="opacity:0.75;fill:none;stroke:#878787;stroke-width:1px;stroke-linecap:round;stroke-linejoin:miter;stroke-opacity:1" />
  <path
     d="M 13.830986,2.8041629 L 12.536187,7.6364167"
     id="path2631"
     style="opacity:0.75;fill:none;stroke:#878787;stroke-width:1px;stroke-linecap:round;stroke-linejoin:miter;stroke-opacity:1" />
  <path
     d="M 11.5,15.509307 L 11.5,20.50976"
     id="path3403"
     style="opacity:0.6;fill:none;stroke:#878787;stroke-width:1px;stroke-linecap:round;stroke-linejoin:miter;stroke-opacity:1" />
  <path
     d="M 11.5,2.4972827 L 11.5,7.5000002"
     id="path3405"
     style="opacity:0.6;fill:none;stroke:#878787;stroke-width:1px;stroke-linecap:round;stroke-linejoin:miter;stroke-opacity:1" />
  <path
     d="M 12.536774,15.372813 L 13.830985,20.20288"
     id="path3407"
     style="opacity:0.5;fill:none;stroke:#878787;stroke-width:1px;stroke-linecap:round;stroke-linejoin:miter;stroke-opacity:1" />
  <path
     d="M 9.1690138,2.8041628 L 10.463812,7.6364168"
     id="path3409"
     style="opacity:0.5;fill:none;stroke:#878787;stroke-width:1px;stroke-linecap:round;stroke-linejoin:miter;stroke-opacity:1" />
  <path
     d="M 13.502893,14.972634 L 16.003119,19.303153"
     id="path3415"
     style="opacity:0.4;fill:none;stroke:#878787;stroke-width:1px;stroke-linecap:round;stroke-linejoin:miter;stroke-opacity:1" />
  <path
     d="M 6.9968805,3.7038898 L 9.4982392,8.0363702"
     id="path3417"
     style="opacity:0.4;fill:none;stroke:#878787;stroke-width:1px;stroke-linecap:round;stroke-linejoin:miter;stroke-opacity:1" />
  <path
     d="M 14.332519,14.336039 L 17.868373,17.871894"
     id="path3419"
     style="opacity:0.3;fill:none;stroke:#878787;stroke-width:1px;stroke-linecap:round;stroke-linejoin:miter;stroke-opacity:1" />
  <path
     d="M 5.1316276,5.1351487 L 8.6690833,8.6726039"
     id="path3421"
     style="opacity:0.3;fill:none;stroke:#878787;stroke-width:1px;stroke-linecap:round;stroke-linejoin:miter;stroke-opacity:1" />
  <path
     d="M 14.969112,13.506414 L 19.29963,16.006641"
     id="path3423"
     style="opacity:0.2;fill:none;stroke:#878787;stroke-width:1px;stroke-linecap:round;stroke-linejoin:miter;stroke-opacity:1" />
  <path
     d="M 3.7003678,7.0004026 L 8.0328482,9.5017614"
     id="path3425"
     style="opacity:0.2;fill:none;stroke:#878787;stroke-width:1px;stroke-linecap:round;stroke-linejoin:miter;stroke-opacity:1" />
  <path
     d="M 15.369291,12.540294 L 20.199358,13.834508"
     id="path3427"
     style="opacity:0.15;fill:none;stroke:#878787;stroke-width:1px;stroke-linecap:round;stroke-linejoin:miter;stroke-opacity:1" />
  <path
     d="M 2.8006413,9.1725349 L 7.632895,10.467334"
     id="path3429"
     style="opacity:0.15;fill:none;stroke:#878787;stroke-width:1px;stroke-linecap:round;stroke-linejoin:miter;stroke-opacity:1" />
  <path
     d="M 15.505785,11.503521 L 20.506238,11.503521"
     id="path3431"
     style="opacity:0.1;fill:none;stroke:#878787;stroke-width:1px;stroke-linecap:round;stroke-linejoin:miter;stroke-opacity:1" />
  <path
     d="M 2.4937607,11.503522 L 7.4964783,11.503521"
     id="path3433"
     style="opacity:0.1;fill:none;stroke:#878787;stroke-width:1px;stroke-linecap:round;stroke-linejoin:miter;stroke-opacity:1" />
  <path
     d="M 14.969111,9.5006282 L 19.299631,7.0004021"
     id="path3435"
     style="opacity:0.05;fill:none;stroke:#878787;stroke-width:1px;stroke-linecap:round;stroke-linejoin:miter;stroke-opacity:1" />
  <path
     d="M 3.7003679,16.006641 L 8.0328486,13.505282"
     id="path3437"
     style="opacity:0.05;fill:none;stroke:#878787;stroke-width:1px;stroke-linecap:round;stroke-linejoin:miter;stroke-opacity:1" />
</svg>
